dist/svgs/org-calendar.svg

<svg xmlns="http://www.w3.org/2000/svg" viewBox="0 0 512 512"><path d="M425 46q26 0 45 19t19 45v338q0 26-19 45t-45 19H87q-26 0-45-19t-19-45V110q0-26 19-45t45-19h46V20q0-8 5.5-13.5T152 1t14 5.5 6 13.5v26h168V20q0-8 6-13.5T360 1t13.5 5.5T379 20v26h46zm26 156H61v246q0 11 7.5 18.5T87 474h338q11 0 18.5-7.5T451 448V202zm0-92q0-11-7.5-18.5T425 84h-46v14q0 8-5.5 13.5T360 117t-14-5.5-6-13.5V84H172v14q0 8-6 13.5t-14 5.5-13.5-5.5T133 98V84H87q-11 0-18.5 7.5T61 110v53h390v-53z"/></svg>

<?xml version="1.0" encoding="UTF-8" standalone="no"?><svg   xmlns:svg="http://www.w3.org/2000/svg"   xmlns="http://www.w3.org/2000/svg"   version="1.1"   width="512"   height="512"   viewBox="0 0 512 512">  <path     d="M425 46Q451 46 470 65T489 110V448Q489 474 470 493T425 512H87Q61 512 42 493T23 448V110Q23 84 42 65T87 46H133V20Q133 12 138.5 6.5T152 1T166 6.5T172 20V46H340V20Q340 12 346 6.5T360 1T373.5 6.5T379 20V46H425zM451 202H61V448Q61 459 68.5 466.5T87 474H425Q436 474 443.5 466.5T451 448V202zM451 110Q451 99 443.5 91.5T425 84H379V98Q379 106 373.5 111.5T360 117T346 111.5T340 98V84H172V98Q172 106 166 111.5T152 117T138.5 111.5T133 98V84H87Q76 84 68.5 91.5T61 110V163H451V110z"     id="org-calendar" /></svg>
